X: 49
T:Flowers of Edinburgh
% Nottingham Music Database
S:Kevin Briggs, via EF
M:4/4
L:1/4
K:G
P:A
D|"G"GG "D/a"BG/2B/2|"G/b"dB "C"g3/2e/2|"G"dB B/2A/2G/2A/2|"Em""C"BG "D7""D"ED\
|
"G""Em"GG BG/2B/2|"G"dB "C"g3/2e/2|"G/d"dB "D7"B/2A/2G/2A/2|"G"BG G:|
P:B
f|"Em"g2 "B7"f3/2e/2|"Em"Be "B7"ee/2f/2|"Em"gg "B7"f/2a/2g/2f/2|"Em"Be "D7"e2|
"G"d/2B/2G/2B/2 dd|"C"e/2d/2e/2f/2 ge|"G/d"dB "D7"B/2A/2G/2A/2|"G"BG G:|<end>
<start>
